X: 781
T: The Priest's Leap.
B:O'Neill's Music of Ireland
N:O'Neill's - 781
Z:Transcribed by Stephen Foy (shf@access.digex.net)
Z:abc 1.6
M:6/8
R:Jig
K:G
D|GBA G2 B|def gdB|GBA G2 B|AFD AFD|\
GBA G2 B|def gfg|ecA dBG|FEF G2:|
||B|ded dcB|def gdB|ded dcB|AFD AFD|\
ded dcB|def gfg|ecA dBG|FEF G2:|


